!!!COM: Scarlatti, Domenico
!!!CDT: 1685-1757
!!!OTL: Sonata in C major, L.301, K.49
!!!SCT: K. 49
!!!SCT: L. 301
!!!OMD: Presto ([half]=104)
**kern	**kern	**dynam
*staff2	*staff1	*staff1/2
*Icemba	*Icemba	*
*I"L.301 (K.49)	*I"L.301 (K.49)	*
*>[A,A1,A,B,B1,B,B2]	*>[A,A1,A,B,B1,B,B2]	*>[A,A1,A,B,B1,B,B2]
*>norep[A,B,B2]	*>norep[A,B,B2]	*>norep[A,B,B2]
*>A	*>A	*>A
*clefF4	*clefG2	*
*k[]	*k[]	*
*C:	*C:	*
*M2/2	*M2/2	*
*met(c|)	*met(c|)	*
*MM208	*MM208	*
=1-	=1-	=1-
1C	4r	f
.	(8ggL	.
.	8eeJ	.
.	4cc)	.
.	(8gL	.
.	8eJ	.
=2	=2	=2
2.C	4c)	.
.	(8eL	.
.	8gJ	.
.	8ccL	.
.	8g	.
(<4C	8ee	.
.	8ccJ	.
=3	=3	=3
4FF	8bL	.
.	8a	.
4F	8gg#	.
.	8aaJ	.
4G')	4cc')	.
4GG'	4b'm	.
=4	=4	=4
(<2C	(4b	>
.	4.cc)	.
4E	.	]
.	(8ffL	p
4C	8ee	.
.	8ccJ	.
!!LO:LB:g=z
=5	=5	=5
4FF	8bL	.
.	8a	.
4F	8gg#	.
.	8aaJ	.
4G')	4cc')	.
4GG'	4b'm	.
=6	=6	=6
(2C	(4b	.
.	2cc)	.
4E')	.	.
4C'	4ee'	.
=7	=7	=7
.	(8ggq	.
2.D	(12ffL)	mf
.	12ee	.
.	12ddJ	.
.	12ccL	.
.	12b	.
.	12aJ	.
.	4g')	.
4GG'	4ff'	p
=8	=8	=8
2.C	(4dd	.
.	4dd#	.
.	4ee)	.
4e'	4cc'	mf
!!LO:LB:g=z
=9	=9	=9
(12fL	(4a	.
12e	.	.
12dJ	.	.
12cL	4dd	.
12B	.	.
12AJ	.	.
4G')	4g')	.
4F'	4b'	.
=10	=10	=10
*^	*	*
2r	(1E	(4b	.
.	.	2cc)	.
([2c	.	.	.
.	.	4ee'	.
=11	=11	=11	=11
.	.	(8ggq	.
2c]	2D	(12ffL)	.
.	.	12ee	.
.	.	12ddJ	.
.	.	12ccL	.
.	.	12b	.
.	.	12aJ	.
2B)	2G	4g')	.
.	.	4f'	.
*v	*v	*	*
=12	=12	=12
2C	(4d	>
.	4d#	.
2c)	4e)	]
.	4ee'	p
!!LO:LB:g=z
=13	=13	=13
.	(8aaq	.
*^	*	*
2r	(1B	(12ggL)	<
.	.	12ff	.
.	.	12eeJ	.
.	.	8ddL	.
.	.	8ccJ	.
([2g	.	4cc#	.
.	.	4dd)	.
=14	=14	=14	=14
2g]	1A	(12ggL	.
.	.	12ff#	.
.	.	12eeJ	.
.	.	12ddL	.
.	.	12cc	.
.	.	12bJ)	.
2f#	.	(4b	.
.	.	4cc)	.
*v	*v	*	*
=15	=15	=15
2G) 2g)	(8ggL	.
.	16ff#L	.
.	16eeJJ	.
.	16ddLL	.
.	16cc	.
.	16b	.
.	16aJJ	.
(2GG	4a#	.
.	4b)	.
=16	=16	=16
2C)	(4dd#	.
.	[4ee	.
(<2C	16eeLL]	.
.	16ddn	.
.	16cc	.
.	16bJJ	.
.	8aL	.
.	8gJ)	.
!!LO:LB:g=z
=17	=17	=17
.	(8gqq	.
2.D)	(4.f#)m	f
.	8e	.
.	4d)	.
*clefG2	*	*
!	!	!LO:DY:rj
4bb'	4g'	mf
=18	=18	=18
(8aaL	(<8f#L	.
8gg	8g	.
8ff#	8a	.
8eeJ	8bJ	.
4dd')	4cc')	.
*clefF4	*	*
4DD 4D	4a'	.
=19	=19	=19
*	*Xtuplet	*
2.GG 2.G	(12ddL	.
.	12cc	.
.	12bJ	.
.	12ccL	.
.	12b	.
.	12aJ	.
.	4g')	.
*clefG2	*	*
4bb'	4g'	p
=20	=20	=20
(8aaL	(<8f#L	.
8gg	8g	.
8ff#	8a	.
8eeJ	8bJ	.
4dd')	4cc')	.
*clefF4	*	*
4DD' 4D'	4a'	.
!!LO:LB:g=z
=21	=21	=21
(2.GG 2.G	(12ddL	<
.	12cc	.
.	12bJ	.
.	12ccL	.
.	12b	.
.	12aJ	.
.	12bL	.
.	12a	.
.	12gJ	.
4BB	12aL	.
.	12g	.
.	12f#J	.
=22	=22	=22
4C)	12gL	f
.	12f#	.
.	12eJ)	.
(4c	(8dd#L	.
.	8eeJ	.
4d')	4g')	.
4D'	4f#'m	.
=23	=23	=23
2.GG	(4f#	>
.	4g	.
.	4d)	.
*clefG2	*	*
4bb-'	4g'	] mf
=24	=24	=24
(8aaL	(8f#L	.
8gg	8g	.
8ff#	8a	.
8eeJ	8b-J	.
4dd')	4cc')	.
*clefF4	*	*
4DD' 4D'	4a'	.
!!LO:LB:g=z
=25	=25	=25
2.GG 2.G	(12ddL	.
.	12cc	.
.	12b-J	.
.	12ccL	.
.	12b-	.
.	12aJ	.
.	4g')	.
*clefG2	*	*
4bb-'	4g'	p
=26	=26	=26
(8aaL	(<8f#L	.
8gg	8g	.
8ff#	8a	.
8eeJ	8b-J	.
4dd')	4cc')	.
*clefF4	*	*
4DD' 4D'	4a'	.
=27	=27	=27
2.GG 2.G	(12ddL	<
.	12cc	.
.	12b-J	.
.	12ccL	.
.	12b-	.
.	12aJ	.
.	12b-L	.
.	12a	.
.	12gJ	.
(4B-	12aL	.
.	12g	.
.	12fJ	.
=28	=28	=28
4C	12e-L	.
.	12d	.
.	12cJ	.
4c	12ccL>	.
.	12b-	.
.	12aJ	.
4d')	4g')	.
4D'	4f#'m	.
!!LO:LB:g=z
=29	=29	=29
*ped	*	*
4GG	4.g'	p
(4g	.	.
.	(16bnLL	.
.	16aJJ	.
*Xped	*	*
4e	[4g)	.
4c)	16gLL]	.
.	(16cc	.
.	16b	.
.	16aJJ	.
=30	=30	=30
*^	*	*
2d	(4B	4g)	<
.	4G	16gLL	.
.	.	(16dd	.
.	.	16b	.
.	.	16aJJ)	.
2e	4c	[4g	.
.	4G	16gLL>]	.
.	.	(16ee	.
.	.	16b	.
.	.	16aJJ	.
=31	=31	=31	=31
2d	4B	[4g)	.
.	4G	16gLL]	.
.	.	(16ff#	.
.	.	16b	.
.	.	16aJJ	.
2e	4c	[4g)	.
.	4G	16gLL]	.
.	.	(16gg	.
.	.	16b	.
.	.	16aJJ	.
*v	*v	*	*
=32	=32	=32
2.B 2.d)	4g')	f
.	4gg'	.
.	(12ff#L	.
.	12ee	.
.	12ddJ	.
(4A 4c	12ccL	.
.	12b	.
.	12aJ	.
!!LO:LB:g=z
=33	=33	=33
4G 4d)	12bL	.
.	12cc	.
.	12ddJ	.
(<4C	12ccL	.
.	12b	.
.	12aJ	.
4D')	12ddL	.
.	12cc	.
.	12bJ	.
4DD'	12aL	.
.	12g	.
.	12f#J)	.
=34	=34	=34
*ped	*	*
4GG'	(4.gM<	p
(4g	.	.
.	8b)	.
*Xped	*	*
4e	(4.gM<	.
4c)	.	.
.	8cc)	.
=35	=35	=35
*^	*	*
2d	(4B	(4.gM<	<
.	4G	.	.
.	.	8dd)	.
2e	4c	(4.gM<	.
.	4G	.	.
.	.	8ee)	.
=36	=36	=36	=36
2d	4B	(4.gM<	.
.	4G	.	.
.	.	8ff#)	.
2e	4c	(4.gM<	.
.	4G	.	.
.	.	8gg	.
*v	*v	*	*
!!LO:LB:g=z
=37	=37	=37
2.B) 2.d	4g')M	f
.	4bb'	.
.	(12aaL	.
.	12gg	.
.	12ff#J	.
4A (4c	12eeL	.
.	12dd	.
.	12ccJ	.
=38	=38	=38
4G 4d)	12bL	.
.	12cc	.
.	12ddJ	.
(4C	12ccL	.
.	12b	.
.	12aJ	.
4D'/)	12ddL	.
.	12cc	.
.	12bJ	.
4DD'	12aL	.
.	12g	.
.	12f#J	.
=39	=39	=39
*ped	*	*
16r	16g)	.
16GGLL	16r	.
16BB	8r	.
16DJJ	.	.
16GLL	4r	.
16B	.	.
16d	.	.
16gJJ	.	.
4r	16bLL	.
.	16ddJ	.
*Xped	*	*
.	8gg'J	.
4r;	4r;	.
!!LO:LB:g=z
=40	=40	=40
4r	4r	.
.	(8ff#q	.
(4c	4ee')	mf
4d	(12ddL	.
.	12cc	.
.	12bJ	.
4D)	12aL	.
.	12g	.
.	12f#J	.
=41	=41	=41
*ped	*	*
16r	16g)	<
16GGLL	16r	.
16BB-	8r	.
16DJJ	.	.
16GLL	4r	.
16B-	.	.
16d	.	.
16gJJ	.	.
4r	16b-LL	.
.	16ddJ	.
*Xped	*	*
.	8gg'J	sf
4r;	4r;	.
=42	=42	=42
4r	4r	.
.	(8ffq	.
(4c	4ee-')	mf
4d	(12ddL	.
.	12cc	.
.	12b-J	.
4D)	12aL	.
.	12g	.
.	12f#J	.
!!LO:LB:g=z
=43	=43	=43
*ped	*	*
16r	16g)	<
16GGLL	16r	.
16BBn	8r	.
16DJJ	.	.
16GLL	4r	.
16B	.	.
16d	.	.
16gJJ	.	.
4r	16bLL	.
.	32ddL	[
.	32ggJJ	f
*Xped	*	*
.	8bb'J	.
4r;	4r;	.
=44	=44	=44
*	*^	*
4r	2ryy	4r	.
4c 4e	.	4ee' 4ccc'	f
(4d/	(12bbL	4dd	.
.	12aa	.	.
.	12ggJ	.	.
4D	12aaL	4cc	.
.	12gg	.	.
.	12ff#J	.	.
*	*v	*v	*
=45	=45	=45
4G)	12ggL	.
.	12dd	.
.	12bJ)	.
(4c 4e	(12eeL	mf
.	12cc	.
.	12aJ	.
4B 4d	12ddL	.
.	12b	.
.	12gJ	.
4A 4c	12ccL	.
.	12a	.
.	12f#J	.
!!LO:LB:g=z
=46	=46	=46
4G 4B)	12bL	.
.	12g	.
.	12dJ	.
(4C	12ccL	>
.	12g	.
.	12eJ	.
4D'/)	12bL	.
.	12g	.
.	12dJ	.
4DD'	12aL	.
.	12g	.
.	12f#J	.
=47	=47	=47
4G	12gL	.
.	12d	.
.	12BJ)	.
(4C	(12eL	p
.	12c	.
.	12AJ	<
4BB	12dL	.
.	12B	.
.	12dJ	.
4AA	12cL	.
.	12A	.
.	12F#J	.
*	*clefF4	*clefF4
=48	=48	=48
4GG)	12BL	.
.	12G	.
.	12DJ	.
(4C	12cL	.
.	12G	.
.	12EJ	.
4D'/)	12BL	.
.	12G	.
.	12DJ	.
4DD'	12AL	.
.	12G	.
.	12F#J	.
!!LO:LB:g=z
=49	=49	=49
*>A1	*>A1	*>A1
4GG^	(12GL)	mf
.	12D	.
.	12GJ	.
4r	12BL	.
.	12G	.
.	12BJ	.
*	*clefG2	*clefG2
2r	12dL	.
.	12B	.
.	12dJ	.
.	12gL	.
.	12d	.
.	12gJ	.
=50	=50	=50
1r	12bL	<
.	12g	.
.	12bJ	.
.	12ddL	.
.	12b	.
.	12ddJ	.
.	8ggL	.
.	8ff	.
.	8ee	.
.	8ddJ)	.
=51:|!|:	=51:|!|:	=51:|!|:
*>B	*>B	*>B
4GG^	4r	.
*	*clefG2	*clefG2
4r	(8ddL	f
.	8bJ	.
2r	4g)	.
.	(8dL	.
.	8BJ	.
!!LO:LB:g=z
=52	=52	=52
2.GG	4G)	.
.	(8BL	.
.	8dJ	.
.	8gL	.
.	8d	.
(4B	8b	.
.	8gJ	.
=53	=53	=53
4C	8f#L	.
.	8e	.
4c	8dd#	.
.	8eeJ	.
4d')	4g')	.
4D'	4f#'m	.
=54	=54	=54
2GG	(4f#	.
.	4.g)	.
2B	.	.
.	(8ccL	p
.	8b	.
.	8gJ	.
=55	=55	=55
(4C	8f#L	.
.	8e	.
4c	8dd#	.
.	8eeJ	.
4d')	4g')	.
4D'	4f#'m	.
!!LO:LB:g=z
=56	=56	=56
2.GG	4g'	.
.	(8ddL	<
.	8bJ)	.
.	([2fnMM<	[ mf
(<4A 4d	.	.
=57	=57	=57
2.G# 2.d)	8fL]	.
.	8e	.
.	8dd	.
.	8bJ)	.
.	([2fMM<	.
(<4A 4d	.	.
=58	=58	=58
2.G# 2.d)	8fL>]	.
.	8e	<
.	8ff	.
.	8eeJ)	[
.	(8eeL	>
.	8dd	.
4G#' 4d' 4e'	8cc	.
.	8bJ)	]
=59	=59	=59
(4A	(8b	>
.	4cc)	.
4a)	.	]
.	8ccc'	mf
4a	(8aaL	.
.	8ff#	.
4a	8dd#	.
.	8ccJ	.
!!LO:LB:g=z
=60	=60	=60
(4a	8a#	>
.	4b)	]
4g)	.	.
.	8bb'	.
4g	(8ggL	.
.	8ee	.
4g	8cc	.
.	8bJ	.
=61	=61	=61
(4g	8g#	>
.	4a)	]
4f#)	.	.
.	8aa'	.
4f#	(8ff#L	.
.	8dd#	.
4f#	8cc	.
.	8aJ	.
=62	=62	=62
4e	8f#	>
.	[4.g)	]
4e	.	.
4e	8gL>]	.
.	(8b	.
(4e	8ee	.
.	8bJ)	.
=63	=63	=63
4A)	(4.ccM	.
4AA	.	.
.	8b	.
(4AA	8aL	.
.	8g	.
4A	8f#	.
.	8eJ)	.
!!LO:LB:g=z
=64	=64	=64
.	(16eqq	.
4B)	(4.d#m<)	.
4BB	.	.
.	8c#	.
4r	4B)	.
*clefG2	*	*
4gg'	4e'	p
=65	=65	=65
(8ff#L	(8d#L	.
8ee	8e	.
8dd#	8f#	.
8cc#J	8gJ	.
4b')	4a')	mf
*clefF4	*	*
4BBB' 4BB'	4f#'	.
=66	=66	=66
*ped	*	*
2EE 2E	(12bL	.
.	12a	.
.	12gJ	.
.	12aL	.
.	12g	.
.	12f#J	.
*Xped	*	*
4e'	4g')	.
*clefG2	*	*
4gg'	4e'	p
=67	=67	=67
(8ff#L	(8d#L	.
8ee	8e	.
8dd#	8f#	.
8cc#J	8gJ	.
4b')	4a')	.
*clefF4	*	*
4BBB' 4BB'	4f#'	.
!!LO:LB:g=z
=68	=68	=68
*ped	*	*
2EE 2E	(12bL	.
.	12a	.
.	12gJ	.
.	12aL	.
.	12g	.
.	12f#J	.
*Xped	*	*
4e'	4g')	.
*clefG2	*	*
4ccc'	4a'	.
=69	=69	=69
(8bbL	(8g#L	<
8aa	8a	.
8gg#	8b	.
8ff#J	8ccJ	.
4ee')	4dd')	[ mf
*clefF4	*	*
4EE' 4E'	4b'	.
=70	=70	=70
*ped	*	*
2AA 2A	(12eeL	.
.	12dd	.
.	12ccJ	.
.	12ddL	.
.	12cc	.
.	12bJ	.
*Xped	*	*
*clefG2	*	*
4ee'	4cc')	.
4ccc'	4a'	p
=71	=71	=71
(8bbL	(8g#L	.
8aa	8a	.
8gg#	8b	.
8ff#J	8ccJ	.
4ee')	4dd')	.
*clefF4	*	*
4EE' 4E'	4b'	.
!!LO:LB:g=z
=72	=72	=72
2.AA 2.A	(12eeL	<
.	12dd	.
.	12ccJ	.
.	12ddL	.
.	12cc	.
.	12bJ	.
.	4gg#')	[
(4A	([4aa^	mf
=73	=73	=73
4f)	16aaLL]	p
.	16gg	.
.	16ff	.
.	16eeJJ	.
4f	16ddLL	.
.	16cc	.
.	16b	.
.	16aJJ	.
4f	4aa')	.
4f	4a'	.
=74	=74	=74
4G 4f	4.gM<	.
4G 4f	.	.
.	(8g	< [
4G 4fn	4ff#	>
4G 4f	[4gg)	]]
=75	=75	=75
4G 4e	(16ggLL]	p
.	16ffn	.
.	16ee	.
.	16ddJJ	.
4G 4e	16ccLL<	.
.	16b	.
.	16a	.
.	16gJJ	.
4G 4e	4gg')	.
4G 4e	4g'	.
!!LO:LB:g=z
=76	=76	=76
4F 4e	4.fM<	.
4F 4e	.	.
.	(8f	< [
4F 4e	4ee	>
4F 4e	[4ff)	]]
=77	=77	=77
4F 4d	(16ffLL]	p
.	16ee	.
.	16dd	.
.	16ccJJ	.
4F 4d	16bLL	.
.	16a	.
.	16g	.
.	16fJJ	.
4F 4d	4ff')	.
4F 4d	4f'	.
=78	=78	=78
4E 4d	4.em<	.
4E 4d	.	.
.	(8e	<
4E 4d	4dd#	[ >
4E 4d	[4ee)	]]
=79	=79	=79
4E 4c	8eeL]	p
.	(16ddnL	.
.	16ccJJ	.
4E' 4c'	16bLL	<
.	16a	.
.	16g	.
.	16fJJ	.
4E 4c	16eLL	.
.	16f	.
.	16g	.
.	16aJJ	.
4E 4c	16bLL	.
.	16cc	.
.	32ddL	.
.	32ee	.
.	32ff	.
.	32ggJJJ	.
!!LO:LB:g=z
=80	=80	=80
4F 4f	(12aaL)	mf
.	12gg	.
.	12ffJ	.
4F 4e	12ggL	<
.	12ff	.
.	12eeJ	.
4F 4d	12ffL	.
.	12ee	.
.	12ddJ	.
4F 4c	12eeL	.
.	12dd	.
.	12ccJ	.
=81	=81	=81
4F 4f	12aaL	f
.	12gg	.
.	12ffJ	.
4F 4e	12ggL	>
.	12ff	.
.	12eeJ	.
4F 4d	12ffL	.
.	12ee	.
.	12ddJ	.
4F 4c	12eeL	.
.	12dd	.
.	12ccJ)	.
=82	=82	=82
4G 4d	(<4.bm	p
4G 4d	.	.
.	8g)	.
4G 4c 4e	(<4.ccM	<
4G 4c 4e	.	.
.	8g)	.
=83	=83	=83
4G 4B 4d	(4.ddM	.
4G 4B 4d	.	.
.	8g)	.
4G 4c 4e	(4.eem	.
4G 4c 4e	.	.
.	8g)	.
!!LO:LB:g=z
=84	=84	=84
4G 4B 4d	(4.ggM	f
4G 4B 4d	.	.
.	8g)	.
4G 4c 4e	(4.ccM	mf
4G 4c 4e	.	.
.	8g)	<
=85	=85	=85
4G 4B 4d	(4.ddM	.
4G 4B 4d	.	.
.	8g)	.
4G 4c 4e	(4.eem	.
4G 4c 4e	.	.
.	8gg)	.
=86	=86	=86
.	(16gqq	.
1GG;<	[1gT;)	f >
=87	=87	=87
*	*cue	*
2ryy	30gLLL]	] p <
.	30f#	.
.	30g	.
.	30a	.
.	30b	.
.	30cc	.
.	30dd	[
.	30cc	.
.	30b	<
.	30a	.
.	30g	.
.	30f#	.
.	30e	.
.	30d	.
.	30c	.
*	*rscale:2	*
2ryy	32B<	.
.	32A<	.
.	32G<	.
.	32F#<	.
.	32E<	.
.	32D<	.
.	32C<	.
.	32BB<	.
.	32AA<	.
.	32GG<	.
.	32FF#<	.
.	32EE<	.
.	32DD<	.
.	32CC<	.
.	32BBB<	.
.	32AAA<JJJ	.
*	*rscale:1	*
*	*Xcue	*
!!LO:LB:g=z
=88	=88	=88
4GGG;<^>	2r	f
4r	.	.
4r	4r	.
*clefG2	*	*
(8eeL	4cc'	mf
8ffJ	.	.
=89	=89	=89
8ggL	(8bL	.
8aa	8cc	.
8gg	8dd	.
8aaJ	8eeJ	.
4gg')	4ff')	.
*clefF4	*	*
4GG 4G	4dd'	.
=90	=90	=90
*ped	*	*
2CC 2C	(12ggL	.
.	12ff	.
.	12eeJ	.
.	12ffL	.
.	12ee	.
.	12ddJ	.
*Xped	*	*
*clefG2	*	*
4gg'	4ee')	.
(8eeL	4cc'	p
8ffJ	.	.
=91	=91	=91
8ggL	(8bL	.
8aa	8cc	.
8gg	8dd	.
8aaJ	8eeJ	.
4gg')	4ff')	.
*clefF4	*	*
4GG' 4G'	4dd'	.
!!LO:LB:g=z
=92	=92	=92
2.CC 2.C	(12ggL	<
.	12ff	.
.	12eeJ	.
.	12ffL	.
.	12ee	.
.	12ddJ	.
.	12eeL	.
.	12dd	.
.	12ccJ	.
(4E	12ddL	.
.	12cc	.
.	12bJ	.
=93	=93	=93
4F)	12ccL	f
.	12b	.
.	12aJ)	.
(4F	(8gg#L	.
.	8aaJ	.
4G')	4cc')	.
4GG'	4b'm	.
=94	=94	=94
2C	(4b	.
.	4cc	.
4r	4g')	.
*clefG2	*	*
(8ee-L	4cc'	mf
8ffJ	.	.
=95	=95	=95
8ggL	(8bL	.
8aa-	8cc	.
8gg	8dd	.
8aa-J)	8ee-'J	.
4gg'	4ff')	.
*clefF4	*	*
4GG' 4G'	4dd'	.
!!LO:LB:g=z
=96	=96	=96
*ped	*	*
2CC 2C	(12ggL	.
.	12ff	.
.	12ee-J	.
.	12ffL	.
.	12ee-	.
.	12ddJ	.
*Xped	*	*
*clefG2	*	*
4ee-'	4cc')	.
(8ee-L	4cc'	p
8ffJ	.	.
=97	=97	=97
8ggL	(8bL	.
8aa-	8cc	.
8gg	8dd	.
8aa-J	8ee-J	.
4gg')	4ff')	.
*clefF4	*	*
4GG' 4G'	4dd'	.
=98	=98	=98
2.CC 2.C	(12ggL	<
.	12ff	.
.	12ee-J	.
.	12ffL	.
.	12ee-	.
.	12ddJ	.
.	12ee-L	.
.	12dd	.
.	12ccJ	.
4E-' 4c'	12ddL	.
.	12cc	.
.	12b-J	.
=99	=99	=99
*^	*	*
(4c	2F	12a-L	f
.	.	12g	.
.	.	12fJ	.
4f	.	12ffL	.
.	.	12ee-	.
.	.	12ddJ	.
4e-')	2G	4cc')	.
4d'	.	4bn'm	.
*v	*v	*	*
!!LO:LB:g=z
=100	=100	=100
(4C	(4.cc	.
4c)	.	.
.	16eenLL	p
.	16ddJJ	.
*clefG2	*	*
(4f 4a	[4cc)	.
4c	16ccLL]	.
.	(16ff	.
.	16ee	.
.	16ddJJ	.
=101	=101	=101
4e 4g	[4cc)	<
4c	16cc'LL]	.
.	(16gg	.
.	16ee	.
.	16ddJJ	.
4f 4a	[4cc)	.
4c	16ccLL]	.
.	(16aa	.
.	16ee	.
.	16ddJJ	.
=102	=102	=102
4e 4g	[4cc)	.
4c	16ccLL]	.
.	(16bb	.
.	16ee	.
.	16ddJJ	.
4f 4a	[4cc)	.
4c	16ccLL]	.
.	(16ccc	.
.	16ee	.
.	16ddJJ	.
!!LO:LB:g=z
=103	=103	=103
2.e 2.g	4cc')	f
.	4ccc'	.
.	(12bbL	.
.	12aa	.
.	12ggJ	.
4d 4f	12ffL	.
.	12ee	.
.	12ddJ	.
=104	=104	=104
4c 4e)	12eeL	.
.	12ff	.
.	12ggJ	.
*clefF4	*	*
4F' 4f'	12ffL	.
.	12ee	.
.	12ddJ	.
*^	*	*
(4e	2G	12ggL	.
.	.	12ff	.
.	.	12eeJ	.
4d))	.	12ddL	.
.	.	12cc	.
.	.	12bJ)	.
*v	*v	*	*
=105	=105	=105
(4C	(4.ccM	.
4c)	.	p
.	8ee)	.
*clefG2	*	*
(<4f 4a	(4.ccM	.
4c	.	.
.	8ff)	.
=106	=106	=106
4e 4g	(4.ccM	<
4c	.	.
.	8gg)	.
4f 4a	(4.ccM	.
4c	.	.
.	8aa)	.
!!LO:LB:g=z
=107	=107	=107
4e 4g	(4.ccM	.
4c	.	.
.	8bb)	.
4f 4a	(4.ccM	.
4c	.	.
.	8ccc	.
=108	=108	=108
2.e 2.g	4cc'M)	f
.	4ccc'	.
.	(12bbL	.
.	12aa	.
.	12ggJ	.
4d 4f	12ffL	.
.	12ee	.
.	12ddJ	.
=109	=109	=109
4c) 4e	12eeL	.
.	12ff	.
.	12ggJ	.
*clefF4	*	*
4F' 4f'	12ffL	.
.	12ee	.
.	12ddJ	.
*^	*	*
(4e	2G	12ggL	.
.	.	12ff	.
.	.	12eeJ	.
4d)	.	12ddL	.
.	.	12cc	.
.	.	12bJ	.
*v	*v	*	*
!!LO:LB:g=z
=110	=110	=110
16r	16cc)	.
*ped	*	*
16CCLL	16r	.
16EE	8r	.
16GGJJ	.	.
16CLL	4r	.
16E	.	.
16G	.	.
16cJJ	.	.
4r	16eLL	.
.	16g	.
.	16cc	.
.	16eeJJ	.
*Xped	*	*
4r;	4r;	.
=111	=111	=111
*^	*	*
2ryy	4r	4r	.
.	.	(16ffqLL	.
.	.	16ggqJJ	.
.	4F' 4f'	4aa')	mf
(4e	2G	(12ggL	.
.	.	12ff	.
.	.	12eeJ	.
4d)	.	12ddL	.
.	.	12cc	.
.	.	12bJ	.
*v	*v	*	*
=112	=112	=112
*ped	*	*
16r	16cc)	.
16CLL	16r	<
16E-	8r	.
16GJJ	.	.
*clefG2	*	*
16cLL	4r	.
16e-	.	.
16g	.	.
16ccJJ	.	.
4r	16ee-LL	.
.	16ggJ	.
*Xped	*	*
.	8ccc'J	sf
4r;	4r;	.
*clefF4	*	*
!!LO:LB:g=z
=113	=113	=113
*^	*	*
2ryy	4r	4r	.
.	.	(8bb-q	.
.	4F'> 4f'>	4aa-')	mf
(4e-	2G	(12ggL	.
.	.	12ff	.
.	.	12ee-J	.
4d)	.	12ddL	.
.	.	12cc	.
.	.	12bJ	.
*v	*v	*	*
=114	=114	=114
*ped	*	*
16r	16cc)	.
16CCLL	16r	<
16EEn	8r	.
16GGJJ	.	.
16CLL	4r	.
16E	.	.
16G	.	.
16cJJ	.	.
4r	16eLL	f
.	16g	.
.	32ccL	.
.	32eeJ	.
*Xped	*	*
.	16gg'JJ	.
4r;	4r;	.
=115	=115	=115
*^	*	*
2ryy	4r	4r	.
.	.	(16ffqLL	.
.	.	16ggqJJ	.
.	4F' 4f'	4aa')	f
(4e	2G	(12ggL	.
.	.	12ff	.
.	.	12eeJ	.
4d)	.	12ffL	.
.	.	12ee	.
.	.	12ddJ	.
*v	*v	*	*
!!LO:LB:g=z
=116	=116	=116
4C'	12eeL	.
.	12ff	.
.	12ggJ	.
(4f 4a	12aaL	.
.	12ff	.
.	12ddJ	.
4e 4g	12ggL	>
.	12ee	.
.	12ccJ	.
4d 4f	12ffL	.
.	12dd	.
.	12bJ	.
=117	=117	=117
*^	*	*
2ryy	4c 4e)	12eeL	.
.	.	12cc	.
.	.	12gJ	.
.	4F' 4f'	12ffL	p
.	.	12cc	.
.	.	12aJ	.
(4e	2G	12eeL	.
.	.	12cc	.
.	.	12gJ	.
4d)	.	12ddL	.
.	.	12cc	.
.	.	12bJ	.
*v	*v	*	*
=118	=118	=118
4C'	12ccL	<
.	12g	.
.	12eJ)	.
(4F 4A	(>12aL	.
.	12f	.
.	12dJ	.
4E 4G	12gL	.
.	12e	.
.	12cJ	.
4D 4F	12fL	.
.	12d	.
.	12BJ	.
!!LO:LB:g=z
=119	=119	=119
4C 4G)	12eL	.
.	12c	.
.	12GJ	.
4FF' 4F'	12fL	.
.	12c	.
.	12AJ	.
(>4GG 4E	12eL	.
.	12c	.
.	12GJ	.
4GG 4D)	12dL	.
.	12c	.
.	12BJ	.
=120	=120	=120
*>B1	*>B1	*>B1
4CC^ 4C^	(12cL)	mf
.	12G	.
.	12cJ	.
4r	12eL	<
.	12c	.
.	12eJ	.
2r	12gL	.
.	12e	.
.	12gJ	.
.	12ccL	.
.	12b	.
.	12aJ)	.
=121:|!	=121:|!	=121:|!
*>B2	*>B2	*>B2
4CC^ 4C^@	4c^	f
4r	4r	.
2r	2r	.
==	==	==
*-	*-	*-
!!!RDF**kern: > = above
!!!RDF**kern: < = below
!!!RDF**kern: @ = marked note, color="silver", optional note
!!!verovio: beamFrenchStyle 1
!!!URL-vhv: https://verovio.humdrum.org/?file=scarlatti/sonatas/L301K049.krn
!!!URL-pdf: https://github.com/craigsapp/scarlatti-keyboard-sonatas/blob/master/reference-edition/L301K049.pdf
!!!PTL: Domenico Scarlatti: Opere complete per clavicembalo
!!!PED: Longo, Alessandro
!!!PPR: Ricordi
!!!PPP: Milan
!!!PDT: 1906-1913
!!!YEC: 2021 Craig Stuart Sapp
!!!YEM: Licence: (CC BY-NC-SA 4.0) https://creativecommons.org/licenses/by-nc-sa/4.0
!!!ENC: Craig Stuart Sapp
!!!END: 2004/11/06
!!!EED: Craig Stuart Sapp
!!!EEV: 2021/06/13
